icon-themes/sifr_svg/cmd/lc_dbchangedesignmode.svg

<svg viewBox="0 0 24 24" xmlns="http://www.w3.org/2000/svg"><path d="m12 2a10 5 0 0 0 -10 5v1.4296875l4.7832031 2.8261715a10 5 0 0 0 5.2167969.744141 10 5 0 0 0 8-2.0097656v2.0097656a8 3 0 0 1 -6.931641 2.970703l2.775391 1.640625a10 5 0 0 0 4.15625-1.621094v2.009766a8 3 0 0 1 -1.019531 1.462891l1.701172 1.005859a10 5 0 0 0 1.318359-2.46875v-5-5a10 5 0 0 0 -10-5zm0 2a8 3 0 0 1 8 3 8 3 0 0 1 -8 3 8 3 0 0 1 -8-3 8 3 0 0 1 8-3zm-11 5v14h22v-1zm3 6 9 5h-9z" fill="#555753"/></svg>

<svg xmlns="http://www.w3.org/2000/svg" viewBox="0 0 24 24">
  <path
     style="fill:#555753"
     d="M 12 2 A 10 5 0 0 0 2 7 L 2 8.4296875 L 6.7832031 11.255859 A 10 5 0 0 0 12 12 A 10 5 0 0 0 20 9.9902344 L 20 12 A 8 3 0 0 1 13.068359 14.970703 L 15.84375 16.611328 A 10 5 0 0 0 20 14.990234 L 20 17 A 8 3 0 0 1 18.980469 18.462891 L 20.681641 19.46875 A 10 5 0 0 0 22 17 L 22 12 L 22 7 A 10 5 0 0 0 12 2 z M 12 4 A 8 3 0 0 1 20 7 A 8 3 0 0 1 12 10 A 8 3 0 0 1 4 7 A 8 3 0 0 1 12 4 z M 1 9 L 1 23 L 23 23 L 23 22 L 1 9 z M 4 15 L 13 20 L 4 20 L 4 15 z "
     />
</svg>
